assets/images/padlock.svg

<svg width="16" height="16" viewBox="0 0 16 16" fill="none" xmlns="http://www.w3.org/2000/svg">
<g clip-path="url(#clip0)">
<path d="M12.5 16H3.5C2.67333 16 2 15.3273 2 14.5V7.5C2 6.67267 2.67333 6 3.5 6H12.5C13.3267 6 14 6.67267 14 7.5V14.5C14 15.3273 13.3267 16 12.5 16ZM3.5 7C3.22467 7 3 7.224 3 7.5V14.5C3 14.776 3.22467 15 3.5 15H12.5C12.7753 15 13 14.776 13 14.5V7.5C13 7.224 12.7753 7 12.5 7H3.5Z" fill="#5E5E5E"/>
<path d="M11.5 6.99999C11.224 6.99999 11 6.77599 11 6.49999V4C11 2.346 9.654 0.999999 8 0.999999C6.346 0.999999 5 2.346 5 4V6.49999C5 6.77599 4.776 6.99999 4.5 6.99999C4.224 6.99999 4 6.77599 4 6.49999V4C4 1.794 5.794 0 8 0C10.206 0 12 1.794 12 4V6.49999C12 6.77599 11.776 6.99999 11.5 6.99999Z" fill="#5E5E5E"/>
<path d="M8.00002 11.3333C7.26469 11.3333 6.66669 10.7353 6.66669 9.99999C6.66669 9.26466 7.26469 8.66666 8.00002 8.66666C8.73535 8.66666 9.33335 9.26466 9.33335 9.99999C9.33335 10.7353 8.73535 11.3333 8.00002 11.3333ZM8.00002 9.66665C7.81668 9.66665 7.66668 9.81599 7.66668 9.99999C7.66668 10.184 7.81668 10.3333 8.00002 10.3333C8.18335 10.3333 8.33335 10.184 8.33335 9.99999C8.33335 9.81599 8.18335 9.66665 8.00002 9.66665Z" fill="#5E5E5E"/>
<path d="M8 13.3333C7.724 13.3333 7.5 13.1093 7.5 12.8333V11C7.5 10.724 7.724 10.5 8 10.5C8.276 10.5 8.5 10.724 8.5 11V12.8333C8.5 13.1093 8.276 13.3333 8 13.3333Z" fill="#5E5E5E"/>
</g>
<defs>
<clipPath id="clip0">
<rect width="16" height="16" fill="white"/>
</clipPath>
</defs>
</svg>

<?xml version="1.0" encoding="utf-8"?>
<!-- Generator: Adobe Illustrator 24.3.0, SVG Export Plug-In . SVG Version: 6.00 Build 0)  -->
<svg version="1.1" id="Layer_1" xmlns="http://www.w3.org/2000/svg" xmlns:xlink="http://www.w3.org/1999/xlink" x="0px" y="0px"
	 viewBox="0 0 16 16" style="enable-background:new 0 0 16 16;" xml:space="preserve">
<style type="text/css">
	.st0{fill:#0094DA;}
</style>
<g>
	<path class="st0" d="M12.5,16h-9C2.7,16,2,15.3,2,14.5v-7C2,6.7,2.7,6,3.5,6h9C13.3,6,14,6.7,14,7.5v7C14,15.3,13.3,16,12.5,16z
		 M3.5,7C3.2,7,3,7.2,3,7.5v7C3,14.8,3.2,15,3.5,15h9c0.3,0,0.5-0.2,0.5-0.5v-7C13,7.2,12.8,7,12.5,7H3.5z"/>
	<path class="st0" d="M11.5,7C11.2,7,11,6.8,11,6.5V4c0-1.7-1.3-3-3-3S5,2.3,5,4v2.5C5,6.8,4.8,7,4.5,7S4,6.8,4,6.5V4
		c0-2.2,1.8-4,4-4s4,1.8,4,4v2.5C12,6.8,11.8,7,11.5,7z"/>
	<path class="st0" d="M8,11.3c-0.7,0-1.3-0.6-1.3-1.3c0-0.7,0.6-1.3,1.3-1.3S9.3,9.3,9.3,10C9.3,10.7,8.7,11.3,8,11.3z M8,9.7
		c-0.2,0-0.3,0.1-0.3,0.3c0,0.2,0.2,0.3,0.3,0.3c0.2,0,0.3-0.1,0.3-0.3C8.3,9.8,8.2,9.7,8,9.7z"/>
	<path class="st0" d="M8,13.3c-0.3,0-0.5-0.2-0.5-0.5V11c0-0.3,0.2-0.5,0.5-0.5s0.5,0.2,0.5,0.5v1.8C8.5,13.1,8.3,13.3,8,13.3z"/>
</g>
</svg>
